X:16
T:Jockey to the Fair
C:Richard Hughes MS 1832
A:Tushingham, Shropshire/Cheshire
Z:Neil Brookes <neil@brookes36.freeserve.co.uk> tradtunes 2006-6-7
M:6/8
L:1/8
K:C
G \
| c2d e2f | g2c' g2f | egc cBc | d/e/fe d2g \
| g^fg abc' | bd'b a2c | bag dg^f | g3 g2 :|
|: g \
| d'bg d'bg | f2f e2f | gc'g gc'g | f2f e2e \
| a2b c'2b | a2b e2a | a^ga e2d | c2B A2B \
| c2c c2e | a3 c'3 | gec d2e | A2B c2d \
| e2c' efd | c3 c2 :|
